X: 127
T: A Bucket Full Of Dreams
R: jig
M: 6/8
K: Bminor
|:f3 fed|fBB dff|~e3 ede|fed Ace|
f3 fed|fBB dff|BFF Bdf|ecA B2 F:|
|:Bde f2 e|f2 e dBB|Bde fed|eaa fbb|
b2 a bag|fbb aba|fBB Bdf|ecA B2 F:|

